public/cloud-icons/azure/endpoint/intune-device.svg

<?xml version="1.0" encoding="UTF-8" standalone="no"?>
<!-- Generated by Microsoft Visio, SVG Export Intune Device.svg Page-1 -->

<svg
   xmlns:dc="http://purl.org/dc/elements/1.1/"
   xmlns:cc="http://creativecommons.org/ns#"
   xmlns:rdf="http://www.w3.org/1999/02/22-rdf-syntax-ns#"
   xmlns:svg="http://www.w3.org/2000/svg"
   xmlns="http://www.w3.org/2000/svg"
   xmlns:xlink="http://www.w3.org/1999/xlink"
   xmlns:sodipodi="http://sodipodi.sourceforge.net/DTD/sodipodi-0.dtd"
   xmlns:inkscape="http://www.inkscape.org/namespaces/inkscape"
   width="0.78744251in"
   height="0.70872605in"
   viewBox="0 0 56.695879 51.028152"
   xml:space="preserve"
   class="st7"
   version="1.1"
   id="svg73"
   sodipodi:docname="Intune Device.svg"
   style="font-size:12px;overflow:visible;color-interpolation-filters:sRGB;fill:none;fill-rule:evenodd;stroke-linecap:square;stroke-miterlimit:3"
   inkscape:version="0.92.5 (2060ec1f9f, 2020-04-08)"><metadata
   id="metadata77"><rdf:RDF><cc:Work
       rdf:about=""><dc:format>image/svg+xml</dc:format><dc:type
         rdf:resource="http://purl.org/dc/dcmitype/StillImage" /></cc:Work></rdf:RDF></metadata><sodipodi:namedview
   pagecolor="#ffffff"
   bordercolor="#666666"
   borderopacity="1"
   objecttolerance="10"
   gridtolerance="10"
   guidetolerance="10"
   inkscape:pageopacity="0"
   inkscape:pageshadow="2"
   inkscape:window-width="640"
   inkscape:window-height="480"
   id="namedview75"
   showgrid="false"
   inkscape:zoom="1.5255033"
   inkscape:cx="37.795321"
   inkscape:cy="32.001443"
   inkscape:window-x="0"
   inkscape:window-y="0"
   inkscape:window-maximized="0"
   inkscape:current-layer="svg73" />
	<style
   type="text/css"
   id="style2">
	<![CDATA[
		.st1 {fill:#0078d4;stroke:none;stroke-linecap:butt;stroke-width:30.988}
		.st2 {fill:url(#grad0-8);stroke:none;stroke-linecap:butt;stroke-width:30.988}
		.st3 {fill:url(#grad0-12);stroke:none;stroke-linecap:butt;stroke-width:30.988}
		.st4 {fill:#f2f2f2;stroke:none;stroke-linecap:butt;stroke-width:30.988}
		.st5 {fill:none;stroke:none;stroke-linecap:butt;stroke-width:30.988}
		.st6 {fill:url(#grad0-8);stroke:none;stroke-linecap:butt;stroke-width:23.451}
		.st7 {fill:none;fill-rule:evenodd;font-size:12px;overflow:visible;stroke-linecap:square;stroke-miterlimit:3}
	]]>
	</style>

	<defs
   id="Patterns_And_Gradients">
		<linearGradient
   id="grad0-8"
   x1="0"
   y1="0"
   x2="1"
   y2="0"
   gradientTransform="rotate(-90,0.5,0.5)">
			<stop
   offset="0"
   stop-color="#d2ebff"
   stop-opacity="1"
   id="stop4" />
			<stop
   offset="1"
   stop-color="#f0fffd"
   stop-opacity="1"
   id="stop6" />
		</linearGradient>
		<linearGradient
   id="grad0-12"
   x1="-0.0063549223"
   y1="57.508681"
   x2="31.585631"
   y2="57.508681"
   gradientTransform="scale(0.76790868,1.3022382)"
   gradientUnits="userSpaceOnUse">
			<stop
   offset="0"
   stop-color="#0078d4"
   stop-opacity="1"
   id="stop9" />
			<stop
   offset="0.17"
   stop-color="#1c84dc"
   stop-opacity="1"
   id="stop11" />
			<stop
   offset="0.38"
   stop-color="#3990e4"
   stop-opacity="1"
   id="stop13" />
			<stop
   offset="0.59"
   stop-color="#4d99ea"
   stop-opacity="1"
   id="stop15" />
			<stop
   offset="0.8"
   stop-color="#5a9eee"
   stop-opacity="1"
   id="stop17" />
			<stop
   offset="1"
   stop-color="#5ea0ef"
   stop-opacity="1"
   id="stop19" />
		</linearGradient>
	<linearGradient
   inkscape:collect="always"
   xlink:href="#grad0-8"
   id="linearGradient4587"
   gradientTransform="scale(1.1984375,0.83441981)"
   x1="-0.0040719687"
   y1="100.30887"
   x2="38.742112"
   y2="100.30887"
   gradientUnits="userSpaceOnUse" /><linearGradient
   inkscape:collect="always"
   xlink:href="#grad0-8"
   id="linearGradient4589"
   gradientTransform="scale(0.77173056,1.295789)"
   x1="-0.0037228019"
   y1="64.022566"
   x2="25.517809"
   y2="64.022566"
   gradientUnits="userSpaceOnUse" /></defs>
	<g
   id="g71"
   transform="translate(-30.988,-30.986457)">
		<title
   id="title23">Page-1</title>
		<g
   id="group21234-1"
   transform="translate(30.988,-34.0157)">
			<title
   id="title25">Intune Device.21234</title>
			<g
   id="group21235-2">
				<title
   id="title27">layer1</title>
				<g
   id="shape21236-3"
   transform="translate(0,-13.028)">
					<title
   id="title29">rect25</title>
					<path
   d="m 0,114.11 a 1.8898,1.92063 -180 0 0 1.89,1.92 h 48.76 a 1.8898,1.92063 -180 0 0 1.89,-1.92 V 79.95 A 1.8898,1.92063 -180 0 0 50.65,78.03 H 1.89 A 1.8898,1.92063 -180 0 0 0,79.95 Z"
   class="st1"
   id="path31"
   inkscape:connector-curvature="0"
   style="fill:#0078d4;stroke:none;stroke-width:30.98800087;stroke-linecap:butt" />
				</g>
				<g
   id="shape21237-5"
   transform="translate(3.0552,-16.0369)">
					<title
   id="title34">rect27</title>
					<path
   d="m 0,115.07 a 0.944901,0.960316 -180 0 0 0.94488,0.96029 L 45.48,116.03 a 0.944901,0.960316 -180 0 0 0.94488,-0.96029 L 46.43,84.66 A 0.944901,0.960316 -180 0 0 45.48512,83.699707 L 0.94,83.7 a 0.944901,0.960316 -180 0 0 -0.94488,0.960293 z"
   class="st2"
   id="path36"
   inkscape:connector-curvature="0"
   style="fill:url(#linearGradient4587);stroke:none;stroke-width:30.98800087;stroke-linecap:butt" />
				</g>
				<g
   id="shape21238-9"
   transform="translate(32.441)">
					<title
   id="title39">rect29</title>
					<path
   d="m 0,115.07 a 0.944901,0.960316 -180 0 0 0.94488,0.96029 L 23.31,116.03 a 0.944901,0.960316 -180 0 0 0.94488,-0.96029 L 24.25,75.86 A 0.944901,0.960316 -180 0 0 23.30512,74.899707 L 0.94,74.89 a 0.944901,0.960316 -180 0 0 -0.94488,0.960293 z"
   class="st3"
   id="path41"
   inkscape:connector-curvature="0"
   style="fill:url(#grad0-12);stroke:none;stroke-width:30.98800087;stroke-linecap:butt" />
				</g>
				<g
   id="shape21239-13"
   transform="translate(41.7955,-38.9879)">
					<title
   id="title44">rect31</title>
					<path
   d="m 0,115.68 a 0.346464,0.352116 -180 0 0 0.346456,0.35211 L 5.23,116.03 a 0.346464,0.352116 -180 0 0 0.346456,-0.35211 L 5.57,115.61 A 0.346464,0.352116 -180 0 0 5.223544,115.25789 L 0.35,115.26 a 0.346464,0.352116 -180 0 0 -0.346456,0.35211 z"
   class="st4"
   id="path46"
   inkscape:connector-curvature="0"
   style="fill:#f2f2f2;stroke:none;stroke-width:30.98800087;stroke-linecap:butt" />
				</g>
				<g
   id="shape21240-15"
   transform="translate(34.7406,-4.60939)">
					<title
   id="title49">rect33</title>
					<path
   d="m 0,115.58 a 0.440954,0.448147 -180 0 0 0.440944,0.44814 L 19.24,116.03 a 0.440954,0.448147 -180 0 0 0.440944,-0.44814 L 19.68,83.41 A 0.440954,0.448147 -180 0 0 19.239056,82.961863 L 0.44,82.96 a 0.440954,0.448147 -180 0 0 -0.440944,0.448137 z"
   class="st5"
   id="path51"
   inkscape:connector-curvature="0"
   style="fill:none;stroke:none;stroke-width:30.98800087;stroke-linecap:butt" />
				</g>
				<g
   id="shape21241-17"
   transform="translate(23.5595,-49.071)">
					<title
   id="title54">rect35</title>
					<path
   d="m 0,115.68 a 0.346464,0.352116 -180 0 0 0.346456,0.35211 L 5.23,116.03 a 0.346464,0.352116 -180 0 0 0.346456,-0.35211 L 5.57,115.61 A 0.346464,0.352116 -180 0 0 5.223544,115.25789 L 0.35,115.26 a 0.346464,0.352116 -180 0 0 -0.346456,0.35211 z"
   class="st4"
   id="path56"
   inkscape:connector-curvature="0"
   style="fill:#f2f2f2;stroke:none;stroke-width:30.98800087;stroke-linecap:butt" />
				</g>
				<g
   id="shape21242-19"
   transform="translate(43.213,-0.896356)">
					<title
   id="title59">rect37</title>
					<path
   d="m 0,115.39 a 0.629934,0.64021 -180 0 0 0.62992,0.6402 L 2.08,116.03 a 0.629934,0.64021 -180 0 0 0.62992,-0.6402 L 2.71,114.33 A 0.629934,0.64021 -180 0 0 2.08008,113.6898 L 0.63,113.69 A 0.629934,0.64021 -180 0 0 8e-5,114.3302 Z"
   class="st4"
   id="path61"
   inkscape:connector-curvature="0"
   style="fill:#f2f2f2;stroke:none;stroke-width:30.98800087;stroke-linecap:butt" />
				</g>
				<g
   id="shape21243-21"
   transform="translate(34.7406,-4.60939)">
					<title
   id="title64">rect30</title>
					<path
   d="m 0,115.57 a 0.452883,0.460271 -180 0 0 0.452873,0.46026 L 19.24,116.03 a 0.452883,0.460271 -180 0 0 0.452873,-0.46026 L 19.69,83.42 A 0.452883,0.460271 -180 0 0 19.237127,82.959739 L 0.45,82.96 a 0.452883,0.460271 -180 0 0 -0.452873,0.460261 z"
   class="st6"
   id="path66"
   inkscape:connector-curvature="0"
   style="fill:url(#linearGradient4589);stroke:none;stroke-width:23.45100021;stroke-linecap:butt" />
				</g>
			</g>
		</g>
	</g>
</svg>

<svg xmlns="http://www.w3.org/2000/svg" xmlns:xlink="http://www.w3.org/1999/xlink" xml:space="preserve" width="75.594" height="68.038" style="font-size:12px;overflow:visible;color-interpolation-filters:sRGB;fill-rule:evenodd;stroke-linecap:square;stroke-miterlimit:3" viewBox="0 0 56.696 51.028"><defs><linearGradient id="a" x1="0" x2="1" y1="0" y2="0" gradientTransform="rotate(-90 .5 .5)"><stop offset="0" stop-color="#d2ebff"/><stop offset="1" stop-color="#f0fffd"/></linearGradient><linearGradient id="c" x1="-.006" x2="31.586" y1="57.509" y2="57.509" gradientTransform="scale(.7679 1.30224)" gradientUnits="userSpaceOnUse"><stop offset="0" stop-color="#0078d4"/><stop offset=".17" stop-color="#1c84dc"/><stop offset=".38" stop-color="#3990e4"/><stop offset=".59" stop-color="#4d99ea"/><stop offset=".8" stop-color="#5a9eee"/><stop offset="1" stop-color="#5ea0ef"/></linearGradient><linearGradient xlink:href="#a" id="b" x1="-.004" x2="38.742" y1="100.309" y2="100.309" gradientTransform="scale(1.19844 .83442)" gradientUnits="userSpaceOnUse"/><linearGradient xlink:href="#a" id="d" x1="-.004" x2="25.518" y1="64.023" y2="64.023" gradientTransform="scale(.77173 1.29579)" gradientUnits="userSpaceOnUse"/></defs><g transform="translate(-30.988 -30.986)"><title>Page-1</title><g transform="translate(30.988 -34.016)"><title>Intune Device.21234</title><title>layer1</title><g transform="translate(0 -13.028)"><title>rect25</title><path d="M0 114.11a1.89 1.92-180 0 0 1.89 1.92h48.76a1.89 1.92-180 0 0 1.89-1.92V79.95a1.89 1.92-180 0 0-1.89-1.92H1.89A1.89 1.92-180 0 0 0 79.95Z" style="fill:#0078d4;stroke:none;stroke-width:30.98800087;stroke-linecap:butt"/></g><g transform="translate(3.055 -16.037)"><title>rect27</title><path d="M0 115.07a.945.96-180 0 0 .945.96H45.48a.945.96-180 0 0 .945-.96l.005-30.41a.945.96-180 0 0-.945-.96H.94a.945.96-180 0 0-.945.96z" style="fill:url(#b);stroke:none;stroke-width:30.98800087;stroke-linecap:butt"/></g><g transform="translate(32.441)"><title>rect29</title><path d="M0 115.07a.945.96-180 0 0 .945.96H23.31a.945.96-180 0 0 .945-.96l-.005-39.21a.945.96-180 0 0-.945-.96L.94 74.89a.945.96-180 0 0-.945.96z" style="fill:url(#c);stroke:none;stroke-width:30.98800087;stroke-linecap:butt"/></g><g transform="translate(41.795 -38.988)"><title>rect31</title><path d="M0 115.68a.346.352-180 0 0 .346.352l4.884-.002a.346.352-180 0 0 .346-.352l-.006-.068a.346.352-180 0 0-.346-.352l-4.874.002a.346.352-180 0 0-.346.352z" style="fill:#f2f2f2;stroke:none;stroke-width:30.98800087;stroke-linecap:butt"/></g><g transform="translate(34.74 -4.61)"><title>rect33</title><path d="M0 115.58a.441.448-180 0 0 .44.448l18.8.002a.441.448-180 0 0 .44-.448V83.41a.441.448-180 0 0-.44-.448L.44 82.96a.441.448-180 0 0-.44.448z" style="fill:none;stroke:none;stroke-width:30.98800087;stroke-linecap:butt"/></g><g transform="translate(23.56 -49.071)"><title>rect35</title><path d="M0 115.68a.346.352-180 0 0 .346.352l4.884-.002a.346.352-180 0 0 .346-.352l-.006-.068a.346.352-180 0 0-.346-.352l-4.874.002a.346.352-180 0 0-.346.352z" style="fill:#f2f2f2;stroke:none;stroke-width:30.98800087;stroke-linecap:butt"/></g><g transform="translate(43.213 -.896)"><title>rect37</title><path d="M0 115.39a.63.64-180 0 0 .63.64h1.45a.63.64-180 0 0 .63-.64v-1.06a.63.64-180 0 0-.63-.64H.63a.63.64-180 0 0-.63.64Z" style="fill:#f2f2f2;stroke:none;stroke-width:30.98800087;stroke-linecap:butt"/></g><g transform="translate(34.74 -4.61)"><title>rect30</title><path d="M0 115.57a.453.46-180 0 0 .453.46H19.24a.453.46-180 0 0 .453-.46l-.003-32.15a.453.46-180 0 0-.453-.46H.45a.453.46-180 0 0-.453.46z" style="fill:url(#d);stroke:none;stroke-width:23.45100021;stroke-linecap:butt"/></g></g></g></svg>
